X: 3
T: Bartlett's Quickstep
P: piffero b0059
O: Dr. John C. Bartlett
F: http://ancients.sudburymuster.org/mus/acn/pdf/fyf03F.pdf
Z: 2019 John Chambers <jc:trillian.mit.edu>
M: 2/4
L: 1/16
K: D
(3(ABc |\
d4)d2 d4d2 | d4d2 d4e2 |\
f2e2d2 e2d2c2 | d4z2 z4d2 |\
e4e2  e4e2 | e4e2 e4f2 |\
e2d2c2 d2c2B2 | A4z2 z4 ::\
(FG |\
A4)z2 B4A2 |
             "^>"A"^>"dz4 z4(FG |\
A4)z2 B4A2 | "^>"A"^>"ez4 z4(FG |\
A4)z2 B4A2 | "^>"f4"^>"f2 "^>"d4d2 |\
e2f2e2 e2B2c2 | d4z2 z4 ::\
z2 |\
[A12-F12-] | [A4F4][A2F2] [A2F2][B2G2][A2F2] |\
[F12-D12-] |
             [F4D4][F2D2] [F2D2][G2E2][A2F2] |\
[B12-G12-] | [B4G4][B2G2] [d2B2][c2A2][B2G2] |\
[A12-F12-] | [A2F2][A2F2] [A2F2][G2E2][F2D2] |\
[E12-C12-] | [E4C4]z2 ([A4G6]Bc |\
"^>"[d4F4])z2 ([A4G6]Bc | "^>"[d4F4])z2 ([A4G6]Bc |\
"^>"[d4F4])[c2G2] "^>"[d4F4][c2G2] | "^>"[d4F4]z2 z4 :|


